X:18384
T:Walls of Liscarroll, The
M:6/8
L:1/8
Q:120
S:Mary MacNamara, Trad. Music from East Clare (CC60CD)
R:jig
K:DMix
c|:dcA AGE|GEE D2E|GEE cEE|GAB c2c|dcA AGE|GEE D2E
|1 GEE cGE|DED D3 :|2 GEE cGE|DED DFA|
:~d3 ecA|d^cd e=cA|GEE cGE|GAB ~c3
|1~d3 ecA|d^cd e=cA|GEE cGE|DED D3 :|2 dcA AGE|GEE D2E|GEE cGE|DED D3||


